svgs/solid/draw-square.svg

<svg xmlns="http://www.w3.org/2000/svg" viewBox="0 0 448 512"><!--! Font Awesome Pro 6.4.2 by @fontawesome - https://fontawesome.com License - https://fontawesome.com/license (Commercial License) Copyright 2023 Fonticons, Inc. --><path d="M96 151.4V360.6c9.7 5.6 17.8 13.7 23.4 23.4H328.6c5.6-9.7 13.7-17.8 23.4-23.4V151.4c-9.7-5.6-17.8-13.7-23.4-23.4H119.4c-5.6 9.7-13.7 17.8-23.4 23.4zM119.4 448c-11.1 19.1-31.7 32-55.4 32c-35.3 0-64-28.7-64-64c0-23.7 12.9-44.4 32-55.4V151.4C12.9 140.4 0 119.7 0 96C0 60.7 28.7 32 64 32c23.7 0 44.4 12.9 55.4 32H328.6c11.1-19.1 31.7-32 55.4-32c35.3 0 64 28.7 64 64c0 23.7-12.9 44.4-32 55.4V360.6c19.1 11.1 32 31.7 32 55.4c0 35.3-28.7 64-64 64c-23.7 0-44.4-12.9-55.4-32H119.4z"/></svg>

<svg xmlns="http://www.w3.org/2000/svg" viewBox="0 0 448 512"><!--! Font Awesome Pro 6.1.1 by @fontawesome - https://fontawesome.com License - https://fontawesome.com/license (Commercial License) Copyright 2022 Fonticons, Inc. --><path d="M119.4 448C108.4 467.1 87.69 480 64 480C28.65 480 0 451.3 0 416C0 392.3 12.87 371.6 32 360.6V151.4C12.87 140.4 0 119.7 0 96C0 60.65 28.65 32 64 32C87.69 32 108.4 44.87 119.4 64H328.6C339.6 44.87 360.3 32 384 32C419.3 32 448 60.65 448 96C448 119.7 435.1 140.4 416 151.4V360.6C435.1 371.6 448 392.3 448 416C448 451.3 419.3 480 384 480C360.3 480 339.6 467.1 328.6 448H119.4zM96 360.6C105.7 366.2 113.8 374.3 119.4 384H328.6C334.2 374.3 342.3 366.2 352 360.6V151.4C342.3 145.8 334.2 137.7 328.6 128H119.4C113.8 137.7 105.7 145.8 96 151.4V360.6z"/></svg>
